lib/assets/images/service_done.svg

<svg width="40" height="40" viewBox="0 0 40 40" fill="none" xmlns="http://www.w3.org/2000/svg">
<g clip-path="url(#clip0_3_3437)">
<path fill-rule="evenodd" clip-rule="evenodd" d="M20 0.0431881C31.039 0.0431881 40 8.99455 40 20.0216C40 31.0486 31.039 40 20 40C8.96104 40 0 31.0486 0 20.0216C0 8.99455 8.96104 0.0431881 20 0.0431881V0.0431881Z" fill="#ED6CCD"/>
<path fill-rule="evenodd" clip-rule="evenodd" d="M16 9C14.3431 9 13 10.3431 13 12V28C13 29.6569 14.3431 31 16 31H24C25.6569 31 27 29.6569 27 28V12C27 10.3431 25.6569 9 24 9H16ZM23.2593 18.6508C23.6187 18.2315 23.5701 17.6002 23.1508 17.2408C22.7315 16.8813 22.1002 16.9299 21.7407 17.3492L19.4723 19.9957L18.3886 18.8217C18.014 18.4159 17.3814 18.3906 16.9756 18.7652C16.5697 19.1398 16.5444 19.7725 16.919 20.1783L18.7652 22.1783C18.9588 22.3881 19.2329 22.5051 19.5184 22.4998C19.8039 22.4946 20.0735 22.3676 20.2593 22.1508L23.2593 18.6508Z" fill="white"/>
</g>
<defs>
<clipPath id="clip0_3_3437">
<rect width="40" height="40" fill="white"/>
</clipPath>
</defs>
</svg>

<svg width="40" height="40" fill="none" xmlns="http://www.w3.org/2000/svg"><g clip-path="url(#clip0_3_3437)" fill-rule="evenodd" clip-rule="evenodd"><path d="M20 .043c11.039 0 20 8.952 20 19.979S31.039 40 20 40 0 31.049 0 20.022C0 8.995 8.961.043 20 .043z" fill="#ED6CCD"/><path d="M16 9a3 3 0 0 0-3 3v16a3 3 0 0 0 3 3h8a3 3 0 0 0 3-3V12a3 3 0 0 0-3-3h-8zm7.26 9.65a1 1 0 0 0-1.52-1.3l-2.268 2.646-1.083-1.174a1 1 0 1 0-1.47 1.356l1.846 2a1 1 0 0 0 1.494-.027l3-3.5z" fill="#fff"/></g><defs><clipPath id="clip0_3_3437"><path fill="#fff" d="M0 0h40v40H0z"/></clipPath></defs></svg>
